!! 00053] TT[KA
!! Kassette von Frau Li Wenzhen, Peking - Zum Gesangsheft
!!!OTL: Tong qian ge
!!!ARE: Asia, China,ÿHunan, Jiangshui
!! Ethnic Group: Han
!! MM, Seite 24, 1
!!!SCT: C1335
!!!YEM: Copyright 1995, estate of Helmut Schaffrath.
**kern
*ICvox
*Ivox
*M2/4
*k[b-e-]
*B-:
{8b-
8cc
8dd
16cc
16dd
=1
8b-
16g
16b-
4cc
=2
16cc
16dd
16b-
16g
4f}
=3
{8.g
16cc
16b-
16cc
16b-
16g
=4
16g
16b-
8d
8.f
16g
=5
16b-
16cc
8g
4f}
=6
{8.g
16cc
8b-
16b-
16g
=7
16b-
16cc
16g
16b-
4cc
=8
16b-
16cc
16g
16b-
4cc}
=9
{8.cc
16dd
8b-
8g
=10
8.f
16g
16b-
16cc
16b-
16g
=11
16g
16b-
8d
4f
=12
16g
16f
8d
4f}
==
!!!AGN: Xiaodiao. Yule
!! Die Stuecke sind meist uebersteuert, also verzerrt.
!!!ONB: ESAC (Essen Associative Code) Database: CHINA
!!!AMT: simple duple
!!!AIN: vox
!!!EED: Helmut Schaffrath
!!!EEV: 1.0
*-
